images/226121.svg

<?xml version="1.0" encoding="UTF-8"?>
<svg xmlns="http://www.w3.org/2000/svg" xmlns:xlink="http://www.w3.org/1999/xlink" width="300pt" height="300pt" viewBox="0 0 300 300" version="1.1">
<defs>
<g>
<symbol overflow="visible" id="glyph0-0">
<path style="stroke:none;" d="M 0.59375 2.125 L 0.59375 -8.46875 L 6.59375 -8.46875 L 6.59375 2.125 Z M 1.265625 1.453125 L 5.9375 1.453125 L 5.9375 -7.78125 L 1.265625 -7.78125 Z M 1.265625 1.453125 "/>
</symbol>
<symbol overflow="visible" id="glyph0-1">
<path style="stroke:none;" d="M 1.171875 -8.75 L 2.359375 -8.75 L 2.359375 -5.15625 L 6.65625 -5.15625 L 6.65625 -8.75 L 7.84375 -8.75 L 7.84375 0 L 6.65625 0 L 6.65625 -4.171875 L 2.359375 -4.171875 L 2.359375 0 L 1.171875 0 Z M 1.171875 -8.75 "/>
</symbol>
<symbol overflow="visible" id="glyph0-2">
<path style="stroke:none;" d="M 4.734375 -7.953125 C 3.867188 -7.953125 3.179688 -7.628906 2.671875 -6.984375 C 2.171875 -6.347656 1.921875 -5.472656 1.921875 -4.359375 C 1.921875 -3.265625 2.171875 -2.394531 2.671875 -1.75 C 3.179688 -1.113281 3.867188 -0.796875 4.734375 -0.796875 C 5.585938 -0.796875 6.265625 -1.113281 6.765625 -1.75 C 7.273438 -2.394531 7.53125 -3.265625 7.53125 -4.359375 C 7.53125 -5.472656 7.273438 -6.347656 6.765625 -6.984375 C 6.265625 -7.628906 5.585938 -7.953125 4.734375 -7.953125 Z M 4.734375 -8.90625 C 5.953125 -8.90625 6.925781 -8.492188 7.65625 -7.671875 C 8.394531 -6.847656 8.765625 -5.742188 8.765625 -4.359375 C 8.765625 -2.984375 8.394531 -1.882812 7.65625 -1.0625 C 6.925781 -0.238281 5.953125 0.171875 4.734375 0.171875 C 3.503906 0.171875 2.519531 -0.238281 1.78125 -1.0625 C 1.039062 -1.882812 0.671875 -2.984375 0.671875 -4.359375 C 0.671875 -5.742188 1.039062 -6.847656 1.78125 -7.671875 C 2.519531 -8.492188 3.503906 -8.90625 4.734375 -8.90625 Z M 4.734375 -8.90625 "/>
</symbol>
<symbol overflow="visible" id="glyph0-3">
<path style="stroke:none;" d="M 1.171875 -8.75 L 2.765625 -8.75 L 6.65625 -1.4375 L 6.65625 -8.75 L 7.796875 -8.75 L 7.796875 0 L 6.203125 0 L 2.328125 -7.3125 L 2.328125 0 L 1.171875 0 Z M 1.171875 -8.75 "/>
</symbol>
</g>
</defs>
<g id="surface10137">
<rect x="0" y="0" width="300" height="300" style="fill:rgb(100%,100%,100%);fill-opacity:1;stroke:none;"/>
<path style=" stroke:none;fill-rule:nonzero;fill:rgb(0%,0%,0%);fill-opacity:1;" d="M 229.679688 125.195312 L 207.5625 148.054688 L 216.722656 154.242188 Z M 229.679688 125.195312 "/>
<path style=" stroke:none;fill-rule:nonzero;fill:rgb(100%,100%,100%);fill-opacity:1;" d="M 193.144531 144.148438 L 212.144531 144.148438 L 212.144531 158.148438 L 193.144531 158.148438 Z M 193.144531 144.148438 "/>
<g style="fill:rgb(100%,0%,0%);fill-opacity:1;">
  <use xlink:href="#glyph0-1" x="193.144531" y="155.287109"/>
  <use xlink:href="#glyph0-2" x="202.167969" y="155.287109"/>
</g>
<path style="fill:none;stroke-width:1.2;stroke-linecap:butt;stroke-linejoin:miter;stroke:rgb(0%,0%,0%);stroke-opacity:1;stroke-miterlimit:10;" d="M 229.679688 125.195312 L 215.96875 97.03125 "/>
<path style="fill:none;stroke-width:1.2;stroke-linecap:butt;stroke-linejoin:miter;stroke:rgb(0%,0%,0%);stroke-opacity:1;stroke-miterlimit:10;" d="M 229.679688 125.195312 L 260.925781 127.402344 "/>
<path style=" stroke:none;fill-rule:nonzero;fill:rgb(0%,0%,0%);fill-opacity:1;" d="M 215.96875 97.03125 L 185.117188 89.308594 L 184.335938 100.335938 Z M 215.96875 97.03125 "/>
<path style="fill:none;stroke-width:1.2;stroke-linecap:butt;stroke-linejoin:miter;stroke:rgb(0%,0%,0%);stroke-opacity:1;stroke-miterlimit:10;" d="M 215.96875 97.03125 L 233.503906 71.078125 "/>
<path style="fill:none;stroke-width:1.2;stroke-linecap:butt;stroke-linejoin:miter;stroke:rgb(0%,0%,100%);stroke-opacity:1;stroke-miterlimit:10;" d="M 184.726562 94.824219 L 175.957031 107.800781 "/>
<path style="fill:none;stroke-width:1.2;stroke-linecap:butt;stroke-linejoin:miter;stroke:rgb(0%,0%,0%);stroke-opacity:1;stroke-miterlimit:10;" d="M 175.957031 107.800781 L 167.191406 120.777344 "/>
<path style=" stroke:none;fill-rule:nonzero;fill:rgb(100%,100%,100%);fill-opacity:1;" d="M 175.726562 87.824219 L 193.726562 87.824219 L 193.726562 101.824219 L 175.726562 101.824219 Z M 175.726562 87.824219 "/>
<g style="fill:rgb(0%,0%,100%);fill-opacity:1;">
  <use xlink:href="#glyph0-3" x="175.726562" y="98.962891"/>
  <use xlink:href="#glyph0-1" x="184.703125" y="98.962891"/>
</g>
<path style="fill:none;stroke-width:1.2;stroke-linecap:butt;stroke-linejoin:miter;stroke:rgb(0%,0%,0%);stroke-opacity:1;stroke-miterlimit:10;" d="M 167.191406 120.777344 L 174.042969 134.859375 "/>
<path style="fill:none;stroke-width:1.2;stroke-linecap:butt;stroke-linejoin:miter;stroke:rgb(0%,0%,100%);stroke-opacity:1;stroke-miterlimit:10;" d="M 174.042969 134.859375 L 180.898438 148.941406 "/>
<path style="fill:none;stroke-width:1.2;stroke-linecap:butt;stroke-linejoin:miter;stroke:rgb(0%,0%,0%);stroke-opacity:1;stroke-miterlimit:10;" d="M 161.933594 126.820312 L 167.417969 138.085938 "/>
<path style="fill:none;stroke-width:1.2;stroke-linecap:butt;stroke-linejoin:miter;stroke:rgb(0%,0%,100%);stroke-opacity:1;stroke-miterlimit:10;" d="M 167.417969 138.085938 L 172.902344 149.351562 "/>
<path style="fill:none;stroke-width:1.2;stroke-linecap:butt;stroke-linejoin:miter;stroke:rgb(0%,0%,100%);stroke-opacity:1;stroke-miterlimit:10;" d="M 135.945312 118.570312 L 151.566406 119.671875 "/>
<path style="fill:none;stroke-width:1.2;stroke-linecap:butt;stroke-linejoin:miter;stroke:rgb(0%,0%,0%);stroke-opacity:1;stroke-miterlimit:10;" d="M 151.566406 119.671875 L 167.191406 120.777344 "/>
<path style="fill:none;stroke-width:1.2;stroke-linecap:butt;stroke-linejoin:miter;stroke:rgb(0%,0%,100%);stroke-opacity:1;stroke-miterlimit:10;" d="M 180.898438 148.941406 L 172.132812 161.917969 "/>
<path style="fill:none;stroke-width:1.2;stroke-linecap:butt;stroke-linejoin:miter;stroke:rgb(0%,0%,0%);stroke-opacity:1;stroke-miterlimit:10;" d="M 172.132812 161.917969 L 163.363281 174.894531 "/>
<path style=" stroke:none;fill-rule:nonzero;fill:rgb(100%,100%,100%);fill-opacity:1;" d="M 176.898438 141.941406 L 185.898438 141.941406 L 185.898438 155.941406 L 176.898438 155.941406 Z M 176.898438 141.941406 "/>
<g style="fill:rgb(0%,0%,100%);fill-opacity:1;">
  <use xlink:href="#glyph0-3" x="176.898438" y="153.080078"/>
</g>
<path style="fill:none;stroke-width:1.2;stroke-linecap:butt;stroke-linejoin:miter;stroke:rgb(0%,0%,0%);stroke-opacity:1;stroke-miterlimit:10;" d="M 163.363281 174.894531 L 170.21875 188.976562 "/>
<path style="fill:none;stroke-width:1.2;stroke-linecap:butt;stroke-linejoin:miter;stroke:rgb(0%,0%,100%);stroke-opacity:1;stroke-miterlimit:10;" d="M 170.21875 188.976562 L 177.074219 203.058594 "/>
<path style="fill:none;stroke-width:1.2;stroke-linecap:butt;stroke-linejoin:miter;stroke:rgb(0%,0%,0%);stroke-opacity:1;stroke-miterlimit:10;" d="M 163.363281 174.894531 L 132.121094 172.6875 "/>
<path style="fill:none;stroke-width:1.2;stroke-linecap:butt;stroke-linejoin:miter;stroke:rgb(0%,0%,0%);stroke-opacity:1;stroke-miterlimit:10;" d="M 160.757812 167.320312 L 135.765625 165.554688 "/>
<path style="fill:none;stroke-width:1.2;stroke-linecap:butt;stroke-linejoin:miter;stroke:rgb(0%,0%,100%);stroke-opacity:1;stroke-miterlimit:10;" d="M 177.074219 203.058594 L 192.695312 204.164062 "/>
<path style="fill:none;stroke-width:1.2;stroke-linecap:butt;stroke-linejoin:miter;stroke:rgb(0%,0%,0%);stroke-opacity:1;stroke-miterlimit:10;" d="M 192.695312 204.164062 L 208.316406 205.265625 "/>
<path style=" stroke:none;fill-rule:nonzero;fill:rgb(100%,100%,100%);fill-opacity:1;" d="M 168.074219 196.058594 L 186.074219 196.058594 L 186.074219 210.058594 L 168.074219 210.058594 Z M 168.074219 196.058594 "/>
<g style="fill:rgb(0%,0%,100%);fill-opacity:1;">
  <use xlink:href="#glyph0-3" x="168.074219" y="207.197266"/>
  <use xlink:href="#glyph0-1" x="177.050781" y="207.197266"/>
</g>
<path style="fill:none;stroke-width:1.2;stroke-linecap:butt;stroke-linejoin:miter;stroke:rgb(0%,0%,0%);stroke-opacity:1;stroke-miterlimit:10;" d="M 208.316406 205.265625 L 228.847656 228.921875 "/>
<path style="fill:none;stroke-width:1.2;stroke-linecap:butt;stroke-linejoin:miter;stroke:rgb(0%,0%,0%);stroke-opacity:1;stroke-miterlimit:10;" d="M 231.972656 184.734375 L 208.316406 205.265625 "/>
<path style="fill:none;stroke-width:1.2;stroke-linecap:butt;stroke-linejoin:miter;stroke:rgb(0%,0%,0%);stroke-opacity:1;stroke-miterlimit:10;" d="M 228.847656 228.921875 L 252.503906 208.390625 "/>
<path style="fill:none;stroke-width:1.2;stroke-linecap:butt;stroke-linejoin:miter;stroke:rgb(0%,0%,0%);stroke-opacity:1;stroke-miterlimit:10;" d="M 252.503906 208.390625 L 231.972656 184.734375 "/>
<path style="fill:none;stroke-width:1.2;stroke-linecap:butt;stroke-linejoin:miter;stroke:rgb(0%,0%,0%);stroke-opacity:1;stroke-miterlimit:10;" d="M 132.121094 172.6875 L 120.84375 183.554688 "/>
<path style="fill:none;stroke-width:1.2;stroke-linecap:butt;stroke-linejoin:miter;stroke:rgb(0%,0%,100%);stroke-opacity:1;stroke-miterlimit:10;" d="M 120.84375 183.554688 L 109.570312 194.425781 "/>
<path style="fill:none;stroke-width:1.2;stroke-linecap:butt;stroke-linejoin:miter;stroke:rgb(0%,0%,0%);stroke-opacity:1;stroke-miterlimit:10;" d="M 118.410156 144.523438 L 132.121094 172.6875 "/>
<path style="fill:none;stroke-width:1.2;stroke-linecap:butt;stroke-linejoin:miter;stroke:rgb(0%,0%,100%);stroke-opacity:1;stroke-miterlimit:10;" d="M 109.570312 194.425781 L 95.75 187.0625 "/>
<path style="fill:none;stroke-width:1.2;stroke-linecap:butt;stroke-linejoin:miter;stroke:rgb(0%,0%,0%);stroke-opacity:1;stroke-miterlimit:10;" d="M 95.75 187.0625 L 81.925781 179.699219 "/>
<path style="fill:none;stroke-width:1.2;stroke-linecap:butt;stroke-linejoin:miter;stroke:rgb(0%,0%,100%);stroke-opacity:1;stroke-miterlimit:10;" d="M 110.273438 186.449219 L 99.214844 180.558594 "/>
<path style="fill:none;stroke-width:1.2;stroke-linecap:butt;stroke-linejoin:miter;stroke:rgb(0%,0%,0%);stroke-opacity:1;stroke-miterlimit:10;" d="M 99.214844 180.558594 L 88.15625 174.667969 "/>
<path style=" stroke:none;fill-rule:nonzero;fill:rgb(100%,100%,100%);fill-opacity:1;" d="M 105.570312 187.425781 L 114.570312 187.425781 L 114.570312 201.425781 L 105.570312 201.425781 Z M 105.570312 187.425781 "/>
<g style="fill:rgb(0%,0%,100%);fill-opacity:1;">
  <use xlink:href="#glyph0-3" x="105.570312" y="198.564453"/>
</g>
<path style="fill:none;stroke-width:1.2;stroke-linecap:butt;stroke-linejoin:miter;stroke:rgb(0%,0%,0%);stroke-opacity:1;stroke-miterlimit:10;" d="M 81.925781 179.699219 L 84.65625 164.28125 "/>
<path style="fill:none;stroke-width:1.2;stroke-linecap:butt;stroke-linejoin:miter;stroke:rgb(0%,0%,100%);stroke-opacity:1;stroke-miterlimit:10;" d="M 84.65625 164.28125 L 87.390625 148.859375 "/>
<path style="fill:none;stroke-width:1.2;stroke-linecap:butt;stroke-linejoin:miter;stroke:rgb(0%,0%,100%);stroke-opacity:1;stroke-miterlimit:10;" d="M 87.390625 148.859375 L 102.898438 146.691406 "/>
<path style="fill:none;stroke-width:1.2;stroke-linecap:butt;stroke-linejoin:miter;stroke:rgb(0%,0%,0%);stroke-opacity:1;stroke-miterlimit:10;" d="M 102.898438 146.691406 L 118.410156 144.523438 "/>
<path style="fill:none;stroke-width:1.2;stroke-linecap:butt;stroke-linejoin:miter;stroke:rgb(0%,0%,100%);stroke-opacity:1;stroke-miterlimit:10;" d="M 87.390625 148.859375 L 76.519531 137.585938 "/>
<path style="fill:none;stroke-width:1.2;stroke-linecap:butt;stroke-linejoin:miter;stroke:rgb(0%,0%,0%);stroke-opacity:1;stroke-miterlimit:10;" d="M 76.519531 137.585938 L 65.648438 126.308594 "/>
<path style=" stroke:none;fill-rule:nonzero;fill:rgb(100%,100%,100%);fill-opacity:1;" d="M 83.390625 141.859375 L 92.390625 141.859375 L 92.390625 155.859375 L 83.390625 155.859375 Z M 83.390625 141.859375 "/>
<g style="fill:rgb(0%,0%,100%);fill-opacity:1;">
  <use xlink:href="#glyph0-3" x="83.390625" y="152.998047"/>
</g>
<path style="fill:none;stroke-width:1.2;stroke-linecap:butt;stroke-linejoin:miter;stroke:rgb(0%,0%,0%);stroke-opacity:1;stroke-miterlimit:10;" d="M 118.410156 144.523438 L 127.179688 131.546875 "/>
<path style="fill:none;stroke-width:1.2;stroke-linecap:butt;stroke-linejoin:miter;stroke:rgb(0%,0%,100%);stroke-opacity:1;stroke-miterlimit:10;" d="M 127.179688 131.546875 L 135.945312 118.570312 "/>
<path style="fill:none;stroke-width:1.2;stroke-linecap:butt;stroke-linejoin:miter;stroke:rgb(0%,0%,0%);stroke-opacity:1;stroke-miterlimit:10;" d="M 126.269531 146.054688 L 133.285156 135.671875 "/>
<path style="fill:none;stroke-width:1.2;stroke-linecap:butt;stroke-linejoin:miter;stroke:rgb(0%,0%,100%);stroke-opacity:1;stroke-miterlimit:10;" d="M 133.285156 135.671875 L 140.300781 125.289062 "/>
<path style=" stroke:none;fill-rule:nonzero;fill:rgb(100%,100%,100%);fill-opacity:1;" d="M 131.945312 111.570312 L 140.945312 111.570312 L 140.945312 125.570312 L 131.945312 125.570312 Z M 131.945312 111.570312 "/>
<g style="fill:rgb(0%,0%,100%);fill-opacity:1;">
  <use xlink:href="#glyph0-3" x="131.945312" y="122.708984"/>
</g>
<path style="fill:none;stroke-width:1.2;stroke-linecap:butt;stroke-linejoin:miter;stroke:rgb(0%,0%,0%);stroke-opacity:1;stroke-miterlimit:10;" d="M 65.648438 126.308594 L 35.25 133.863281 "/>
<path style="fill:none;stroke-width:1.2;stroke-linecap:butt;stroke-linejoin:miter;stroke:rgb(0%,0%,0%);stroke-opacity:1;stroke-miterlimit:10;" d="M 65.648438 126.308594 L 74.304688 96.207031 "/>
<path style="fill:none;stroke-width:1.2;stroke-linecap:butt;stroke-linejoin:miter;stroke:rgb(0%,0%,0%);stroke-opacity:1;stroke-miterlimit:10;" d="M 233.503906 71.078125 L 264.75 73.285156 "/>
</g>
</svg>

<svg xmlns="http://www.w3.org/2000/svg" xmlns:xlink="http://www.w3.org/1999/xlink" width="300pt" height="300pt" viewBox="0 0 300 300"><defs><symbol overflow="visible"><path d="M.594 2.125V-8.47h6V2.126zm.672-.672h4.671V-7.78h-4.67zm0 0"/></symbol><symbol overflow="visible" id="a"><path d="M1.172-8.75H2.36v3.594h4.296V-8.75h1.188V0H6.656v-4.172H2.36V0H1.17zm0 0"/></symbol><symbol overflow="visible" id="b"><path d="M4.734-7.953c-.867 0-1.554.324-2.062.97-.5.635-.75 1.51-.75 2.624 0 1.094.25 1.965.75 2.61.508.637 1.195.953 2.062.953.852 0 1.532-.316 2.032-.953.507-.645.765-1.516.765-2.61 0-1.113-.257-1.988-.764-2.624-.5-.645-1.18-.97-2.032-.97zm0-.953c1.22 0 2.192.414 2.922 1.234.74.824 1.11 1.93 1.11 3.313 0 1.376-.37 2.477-1.11 3.298C6.926-.24 5.953.17 4.734.17c-1.23 0-2.214-.41-2.953-1.234C1.04-1.882.673-2.984.673-4.36c0-1.382.367-2.488 1.11-3.312.738-.82 1.722-1.234 2.952-1.234zm0 0"/></symbol><symbol overflow="visible" id="c"><path d="M1.172-8.75h1.594l3.89 7.313V-8.75h1.14V0H6.204L2.328-7.313V0H1.172zm0 0"/></symbol></defs><g><path fill="#fff" d="M0 0h300v300H0z"/><path d="M229.68 125.195l-22.118 22.86 9.16 6.187zm0 0"/><path d="M193.145 144.148h19v14h-19zm0 0" fill="#fff"/><g fill="#f00"><use xlink:href="#a" x="193.145" y="155.287"/><use xlink:href="#b" x="202.168" y="155.287"/></g><path d="M229.68 125.195L215.97 97.03M229.68 125.195l31.246 2.207" stroke-width="1.2" stroke="#000" stroke-miterlimit="10" fill="none"/><path d="M215.97 97.03l-30.853-7.72-.78 11.026zm0 0"/><path d="M215.97 97.03l17.534-25.952" stroke-width="1.2" stroke="#000" stroke-miterlimit="10" fill="none"/><path d="M184.727 94.824l-8.77 12.977" stroke-width="1.2" stroke="#00f" stroke-miterlimit="10" fill="none"/><path d="M175.957 107.8l-8.766 12.977" stroke-width="1.2" stroke="#000" stroke-miterlimit="10" fill="none"/><path d="M175.727 87.824h18v14h-18zm0 0" fill="#fff"/><g fill="#00f"><use xlink:href="#c" x="175.727" y="98.963"/><use xlink:href="#a" x="184.703" y="98.963"/></g><path d="M167.19 120.777l6.853 14.082" stroke-width="1.2" stroke="#000" stroke-miterlimit="10" fill="none"/><path d="M174.043 134.86l6.855 14.08" stroke-width="1.2" stroke="#00f" stroke-miterlimit="10" fill="none"/><path d="M161.934 126.82l5.484 11.266" stroke-width="1.2" stroke="#000" stroke-miterlimit="10" fill="none"/><path d="M167.418 138.086l5.484 11.266M135.945 118.57l15.62 1.102" stroke-width="1.2" stroke="#00f" stroke-miterlimit="10" fill="none"/><path d="M151.566 119.672l15.625 1.105" stroke-width="1.2" stroke="#000" stroke-miterlimit="10" fill="none"/><path d="M180.898 148.94l-8.765 12.978" stroke-width="1.2" stroke="#00f" stroke-miterlimit="10" fill="none"/><path d="M172.133 161.918l-8.77 12.977" stroke-width="1.2" stroke="#000" stroke-miterlimit="10" fill="none"/><path d="M176.898 141.94h9v14h-9zm0 0" fill="#fff"/><use xlink:href="#c" x="176.898" y="153.08" fill="#00f"/><path d="M163.363 174.895l6.856 14.082" stroke-width="1.2" stroke="#000" stroke-miterlimit="10" fill="none"/><path d="M170.22 188.977l6.854 14.082" stroke-width="1.2" stroke="#00f" stroke-miterlimit="10" fill="none"/><path d="M163.363 174.895l-31.242-2.208M160.758 167.32l-24.992-1.765" stroke-width="1.2" stroke="#000" stroke-miterlimit="10" fill="none"/><path d="M177.074 203.06l15.62 1.104" stroke-width="1.2" stroke="#00f" stroke-miterlimit="10" fill="none"/><path d="M192.695 204.164l15.62 1.102" stroke-width="1.2" stroke="#000" stroke-miterlimit="10" fill="none"/><path d="M168.074 196.06h18v14h-18zm0 0" fill="#fff"/><g fill="#00f"><use xlink:href="#c" x="168.074" y="207.197"/><use xlink:href="#a" x="177.051" y="207.197"/></g><path d="M208.316 205.266l20.532 23.656M231.973 184.734l-23.657 20.532M228.848 228.922l23.656-20.53M252.504 208.39l-20.53-23.656M132.12 172.688l-11.276 10.867" stroke-width="1.2" stroke="#000" stroke-miterlimit="10" fill="none"/><path d="M120.844 183.555l-11.274 10.87" stroke-width="1.2" stroke="#00f" stroke-miterlimit="10" fill="none"/><path d="M118.41 144.523l13.71 28.165" stroke-width="1.2" stroke="#000" stroke-miterlimit="10" fill="none"/><path d="M109.57 194.426l-13.82-7.363" stroke-width="1.2" stroke="#00f" stroke-miterlimit="10" fill="none"/><path d="M95.75 187.063L81.926 179.7" stroke-width="1.2" stroke="#000" stroke-miterlimit="10" fill="none"/><path d="M110.273 186.45l-11.058-5.89" stroke-width="1.2" stroke="#00f" stroke-miterlimit="10" fill="none"/><path d="M99.215 180.56l-11.06-5.892" stroke-width="1.2" stroke="#000" stroke-miterlimit="10" fill="none"/><path d="M105.57 187.426h9v14h-9zm0 0" fill="#fff"/><use xlink:href="#c" x="105.57" y="198.564" fill="#00f"/><path d="M81.926 179.7l2.73-15.42" stroke-width="1.2" stroke="#000" stroke-miterlimit="10" fill="none"/><path d="M84.656 164.28l2.735-15.42M87.39 148.86l15.508-2.17" stroke-width="1.2" stroke="#00f" stroke-miterlimit="10" fill="none"/><path d="M102.898 146.69l15.512-2.167" stroke-width="1.2" stroke="#000" stroke-miterlimit="10" fill="none"/><path d="M87.39 148.86l-10.87-11.274" stroke-width="1.2" stroke="#00f" stroke-miterlimit="10" fill="none"/><path d="M76.52 137.586L65.648 126.31" stroke-width="1.2" stroke="#000" stroke-miterlimit="10" fill="none"/><path d="M83.39 141.86h9v14h-9zm0 0" fill="#fff"/><use xlink:href="#c" x="83.391" y="152.998" fill="#00f"/><path d="M118.41 144.523l8.77-12.976" stroke-width="1.2" stroke="#000" stroke-miterlimit="10" fill="none"/><path d="M127.18 131.547l8.765-12.977" stroke-width="1.2" stroke="#00f" stroke-miterlimit="10" fill="none"/><path d="M126.27 146.055l7.015-10.383" stroke-width="1.2" stroke="#000" stroke-miterlimit="10" fill="none"/><path d="M133.285 135.672l7.016-10.383" stroke-width="1.2" stroke="#00f" stroke-miterlimit="10" fill="none"/><path d="M131.945 111.57h9v14h-9zm0 0" fill="#fff"/><use xlink:href="#c" x="131.945" y="122.709" fill="#00f"/><path d="M65.648 126.31l-30.398 7.553M65.648 126.31l8.657-30.103M233.504 71.078l31.246 2.207" stroke-width="1.2" stroke="#000" stroke-miterlimit="10" fill="none"/></g></svg>
